images/footer-logo.svg

<svg width="180" height="38" viewBox="0 0 180 38" fill="none" xmlns="http://www.w3.org/2000/svg">
<path fill-rule="evenodd" clip-rule="evenodd" d="M0 0H39.4467V38H0V0ZM4.93084 32.7586V5.24138H34.5159V32.7586H22.8051V26.2069H16.6416V32.7586H4.93084ZM107.818 29.1091C105.814 29.0622 104.207 28.3584 102.998 26.9977C101.789 25.637 101.104 23.8165 100.945 21.5362C100.857 20.4101 100.941 19.087 101.197 17.5668C101.453 16.0372 101.908 14.6296 102.561 13.344C103.214 12.0584 104.031 10.9886 105.011 10.1347C106.653 8.69892 108.542 8.0045 110.678 8.05141C111.994 8.07959 113.141 8.40337 114.121 9.02271C115.11 9.63267 115.9 10.5147 116.491 11.6689C117.083 12.8232 117.427 14.137 117.524 15.6103C117.595 16.6519 117.533 17.8389 117.339 19.1715C117.154 20.4946 116.805 21.7614 116.293 22.972C115.79 24.1731 115.136 25.2335 114.333 26.1531C113.53 27.0728 112.58 27.8047 111.486 28.349C110.4 28.8839 109.177 29.1372 107.818 29.1091ZM112.982 15.568C112.894 13.222 112.038 12.0021 110.413 11.9083C109.16 11.8426 108.122 12.3727 107.301 13.4988C106.48 14.6155 105.937 16.2671 105.673 18.4536C105.505 19.8049 105.443 20.8512 105.487 21.5925C105.575 23.976 106.441 25.2007 108.083 25.2663C109.16 25.3227 110.087 24.9144 110.864 24.0417C111.64 23.1596 112.201 21.8834 112.545 20.2131C112.89 18.5333 113.035 16.985 112.982 15.568ZM65.4686 28.8276H69.997L73.3475 8.33294H57.5762L54.2393 28.8276H58.7682L61.4956 12.1476H68.1831L65.4686 28.8276ZM96.1668 8.33294H91.5189L82.872 20.9873L84.951 8.33294H80.4091L77.0586 28.8276H81.7201L90.3669 16.1873L88.2879 28.8276H92.8299L96.1668 8.33294ZM133.106 28.8276H137.609L140.959 8.33294H136.443L135.119 16.4689H128.498L129.836 8.33294H125.294L121.956 28.8276H126.485L127.889 20.2694H134.497L133.106 28.8276ZM157.415 20.1427H150.33L149.523 25.0271H157.905L157.283 28.8276H144.372L147.709 8.33294H160.646L160.024 12.1476H151.628L150.913 16.4689H158.011L157.415 20.1427ZM167.555 28.8276L168.693 21.874L171.872 21.8881C173.346 21.8881 174.674 21.6207 175.857 21.0858C177.049 20.5509 178.007 19.7767 178.731 18.7633C179.455 17.7498 179.87 16.5533 179.976 15.1739C180.125 13.1563 179.583 11.5141 178.347 10.2473C177.12 8.98045 175.434 8.34703 173.288 8.34703L166.363 8.33294L163.026 28.8276H167.555ZM172.044 18.0876L169.316 18.0594L170.282 12.1476L173.447 12.1616C174.004 12.1992 174.449 12.3868 174.785 12.7247C175.129 13.0531 175.336 13.5036 175.407 14.076C175.531 15.1927 175.288 16.1357 174.679 16.9052C174.07 17.6653 173.191 18.0594 172.044 18.0876Z" fill="white"/>
</svg>

<svg width="180" height="38" fill="none" xmlns="http://www.w3.org/2000/svg"><path fill-rule="evenodd" clip-rule="evenodd" d="M0 0h39.447v38H0V0zm4.93 32.759V5.24h29.586V32.76h-11.71v-6.552h-6.164v6.552H4.93zm102.888-3.65c-2.004-.047-3.611-.75-4.82-2.111-1.209-1.361-1.894-3.181-2.053-5.462-.088-1.126-.004-2.449.252-3.97.256-1.529.711-2.936 1.364-4.222.653-1.286 1.47-2.355 2.45-3.21 1.642-1.435 3.531-2.13 5.667-2.083 1.316.029 2.463.352 3.443.972.989.61 1.779 1.492 2.37 2.646.592 1.154.936 2.468 1.033 3.941.071 1.042.009 2.229-.185 3.562a15.071 15.071 0 0 1-1.046 3.8 11.618 11.618 0 0 1-1.96 3.181 9.161 9.161 0 0 1-2.847 2.196c-1.086.535-2.309.788-3.668.76zm5.164-13.541c-.088-2.346-.944-3.566-2.569-3.66-1.253-.065-2.291.465-3.112 1.59-.821 1.118-1.364 2.77-1.628 4.956-.168 1.35-.23 2.397-.186 3.139.088 2.383.954 3.608 2.596 3.673 1.077.057 2.004-.352 2.781-1.224.776-.882 1.337-2.159 1.681-3.829.345-1.68.49-3.228.437-4.645zm-47.513 13.26h4.528l3.35-20.495h-15.77l-3.338 20.495h4.53l2.727-16.68h6.687l-2.714 16.68zM96.167 8.333h-4.648l-8.647 12.654 2.079-12.654h-4.542l-3.35 20.495h4.661l8.647-12.64-2.08 12.64h4.543l3.337-20.495zm36.939 20.495h4.503l3.35-20.495h-4.516l-1.324 8.136h-6.621l1.338-8.136h-4.542l-3.338 20.495h4.529l1.404-8.559h6.608l-1.391 8.559zm24.309-8.685h-7.085l-.807 4.884h8.382l-.622 3.8h-12.911l3.337-20.494h12.937l-.622 3.815h-8.396l-.715 4.32h7.098l-.596 3.675zm10.14 8.685 1.138-6.954 3.179.014c1.474 0 2.802-.267 3.985-.802 1.192-.535 2.15-1.31 2.874-2.323.724-1.013 1.139-2.21 1.245-3.59.149-2.017-.393-3.659-1.629-4.926-1.227-1.267-2.913-1.9-5.059-1.9l-6.925-.014-3.337 20.495h4.529zm4.489-10.74-2.728-.029.966-5.911 3.165.014c.557.037 1.002.225 1.338.563.344.328.551.779.622 1.351.124 1.117-.119 2.06-.728 2.83-.609.76-1.488 1.153-2.635 1.182z" fill="#fff"/></svg>
